X:1
T:Title
%%score { ( 1 4 ) | ( 2 3 ) }
L:1/8
Q:1/4=100
M:4/4
K:D
V:1 treble nm="Grand Piano"
V:4 treble 
V:2 bass 
V:3 bass 
V:1
 [FA]2 [FA]>[GB] [FA]3 [DF] | [FA]2 [EG]2 [CE]2 [DF]2 | [EG]2 [FA]2 [Ge]3 [Gc] | %3
w: Chas.~H.~Gabriel * * * *|||
 [Fd]2 [Fd]2 [FA]4 | B2 B>B d3 B | [GB]2 [FA]2 [FA]2 [FB]2 | c2 c>d e2 c2 | B3 c z2 G2 | %8
w: |||||
 [Fd]2 [Ad]>[Ae] [Gd]3 [GB] | [FA]>[GB] [FA]>[DF] [FA]3 [FA] | [FA]2 [EG]2 [Gc]3 [CGB] | %11
w: |||
 [GB]2 [FA]2 [DF]4 | [Fd]2 [Ad]>[Ae] [Gd]3 [GB] | [FA]>[GB] [FA]>[DF] [FA]3 [FA] | %14
w: |||
 [GB]2 [GB]2 [^Ge]3 [Gd] | c>c B>c [Fd]4 |] %16
w: ||
V:2
 [D,D]2 [D,D]>[D,D] [D,D]3 [D,A,] | [A,,A,]2 [A,,A,]2 [A,,A,]2 [A,,A,]2 | %2
 [A,,A,]2 [A,,A,]2 [A,,C]3 [A,,A,] | [D,A,]2 [D,A,]2 [D,D]4 | %4
 [G,DG]2 [G,DG]>[G,DG] [G,B,G]3 [G,DG] | [D,D]2 [D,D]2 [D,D]2 [D,A,]2 | %6
 [E,A,E]2 [E,E]->[E,B,E] [E,CE]2 [E,A,E]2 | z4 C2 z2 | [D,A,]2 [F,=C]>[F,C] [G,B,]3 [G,D] | %9
 [D,D]>[D,D] [D,D]>[D,A,] [D,D]3 [D,A,] | [A,,A,]2 [A,,A,]2 [A,,A,]3 A,, | [D,D]2 [D,D]2 [D,A,]4 | %12
 [D,A,]2 [F,=C]>[F,C] [G,B,]3 [G,D] | [D,D]>[D,D] [D,D]>[D,A,] [D,D]3 [D,D] | %14
 [G,D]2 [G,D]2 [E,D]3 [E,E] | [A,EG]>[A,EG] [A,EG]>[A,G][K:bass] [D,A,]4 |] %16
V:3
 x8 | x8 | x8 | x8 | x8 | x8 | z2 A,2 z4 | [E,^G,D]3 [E,G,E] A,4 | x8 | x8 | x8 | x8 | x8 | x8 | %14
 x8 | x4[K:bass] x4 |] %16
V:4
 x8 | x8 | x8 | x8 | x8 | x8 | x8 | z4 A4 | x8 | x8 | x8 | x8 | x8 | x8 | x8 | x8 |] %16

